img/icon/apple-button.svg

<svg width="85" height="24" viewBox="0 0 85 24" fill="none" xmlns="http://www.w3.org/2000/svg">
<path d="M13.0935 11.1825C13.1129 9.61436 13.8998 8.16587 15.1787 7.34453C14.3683 6.13538 13.0595 5.39623 11.6471 5.35007C10.1613 5.18714 8.72076 6.27889 7.96356 6.27889C7.19172 6.27889 6.02593 5.36625 4.77055 5.39323C3.1188 5.44898 1.61626 6.40622 0.812655 7.91474C-0.898617 11.0099 0.377841 15.5586 2.01713 18.0605C2.8373 19.2856 3.79584 20.6541 5.05009 20.6055C6.27744 20.5524 6.73583 19.788 8.21734 19.788C9.68511 19.788 10.1152 20.6055 11.3949 20.5747C12.7119 20.5524 13.5416 19.3442 14.3331 18.1075C14.9223 17.2345 15.3758 16.2698 15.6766 15.2489C14.1124 14.5578 13.0953 12.9567 13.0935 11.1825Z" fill="white"/>
<path d="M10.531 3.22657C11.2491 2.32606 11.6028 1.1686 11.5172 0C10.4201 0.120369 9.40671 0.668102 8.67892 1.53406C7.96026 2.38845 7.5962 3.50622 7.6669 4.64117C8.77868 4.65313 9.83429 4.13175 10.531 3.22657Z" fill="white"/>
<path fill-rule="evenodd" clip-rule="evenodd" d="M23.0951 16.9439H27.1228L28.0892 19.9274H29.8242L26.0093 8.88916H24.2368L20.4218 19.9274H22.1278L23.0951 16.9439ZM26.7048 15.5669H23.5122L25.0869 10.7249H25.1309L26.7048 15.5669Z" fill="white"/>
<path fill-rule="evenodd" clip-rule="evenodd" d="M35.5255 20.6622C37.4592 20.6622 38.7405 19.0555 38.7405 16.5546C38.7405 14.0607 37.4517 12.4461 35.4964 12.4461C34.4903 12.4122 33.5478 12.9588 33.0434 13.8688H33.0143V12.5303H31.4837V23.2403H33.065V19.2542H33.1016C33.5846 20.17 34.526 20.7168 35.5255 20.6622ZM35.0793 13.8539C36.3091 13.8539 37.1152 14.9251 37.1152 16.5544H37.1151C37.1151 18.1985 36.3091 19.2619 35.0793 19.2619C33.8711 19.2619 33.0584 18.1759 33.0584 16.5544C33.0584 14.9476 33.8711 13.8539 35.0793 13.8539Z" fill="white"/>
<path fill-rule="evenodd" clip-rule="evenodd" d="M44.0346 20.6622C45.9683 20.6622 47.2501 19.0555 47.2501 16.5546C47.2501 14.0607 45.9608 12.4461 44.0055 12.4461C42.9994 12.4122 42.0569 12.9588 41.5525 13.8688H41.5234V12.5303H39.9928V23.2403H41.5741V19.2542H41.6107C42.0937 20.17 43.0352 20.7168 44.0346 20.6622ZM43.5884 13.854C44.8182 13.854 45.6243 14.9252 45.6243 16.5545C45.6243 18.1986 44.8182 19.262 43.5884 19.262C42.3802 19.262 41.5675 18.1761 41.5675 16.5545C41.5675 14.9478 42.3802 13.854 43.5884 13.854Z" fill="white"/>
<path d="M52.6734 17.0359C52.7906 18.1305 53.8086 18.8492 55.1996 18.8492C56.5325 18.8492 57.4914 18.1305 57.4914 17.1435C57.4914 16.2867 56.913 15.7737 55.5436 15.4222L54.1742 15.0775C52.2339 14.588 51.3331 13.64 51.3331 12.1018C51.3331 10.1973 52.9219 8.88916 55.1772 8.88916C57.4108 8.88916 58.9414 10.1973 58.993 12.1018H57.3966C57.3011 11.0003 56.4294 10.3353 55.1555 10.3353C53.8817 10.3353 53.01 11.0081 53.01 11.9873C53.01 12.7676 53.5667 13.2268 54.9287 13.5784L56.0929 13.877C58.2608 14.4126 59.1608 15.3223 59.1608 16.9369C59.1608 19.002 57.5869 20.2954 55.0824 20.2954C52.7391 20.2954 51.1569 19.0324 51.0547 17.0358L52.6734 17.0359Z" fill="white"/>
<path d="M62.2724 10.6669V12.5714H63.7374V13.8795H62.2724V18.3162C62.2724 19.0054 62.5658 19.3266 63.2097 19.3266C63.3837 19.3234 63.5573 19.3107 63.7299 19.2884V20.5887C63.4404 20.6452 63.1461 20.6708 62.8516 20.6651C61.2919 20.6651 60.6836 20.0531 60.6836 18.4924V13.8795H59.5635V12.5714H60.6836V10.6669H62.2724Z" fill="white"/>
<path fill-rule="evenodd" clip-rule="evenodd" d="M68.3228 12.4443C66.0967 12.4443 64.6691 14.0355 64.6691 16.5676C64.6691 19.1067 66.0825 20.6909 68.3228 20.6909C70.5639 20.6909 71.9774 19.1067 71.9774 16.5676C71.9774 14.0354 70.5565 12.4443 68.3228 12.4443ZM68.3228 13.8057C69.6041 13.8057 70.3661 14.8308 70.3661 16.5678H70.3661C70.3661 18.3117 69.6041 19.3291 68.3228 19.3291C67.0414 19.3291 66.2794 18.3117 66.2794 16.5678C66.2794 14.8387 67.0414 13.8057 68.3228 13.8057Z" fill="white"/>
<path d="M73.1782 12.53H74.6864V13.8997H74.723C74.9333 13.018 75.7068 12.4111 76.5761 12.4457C76.7583 12.4451 76.94 12.4658 77.1179 12.5074V14.0525C76.8878 13.9791 76.6478 13.9454 76.4074 13.9527C75.9425 13.933 75.4925 14.1265 75.1757 14.4825C74.8589 14.8385 74.7069 15.3213 74.7596 15.8043V20.5777H73.1782L73.1782 12.53Z" fill="white"/>
<path fill-rule="evenodd" clip-rule="evenodd" d="M81.0648 20.691C82.8073 20.691 84.1693 19.6884 84.382 18.2274L82.8804 18.2274C82.5922 18.9742 81.8687 19.4345 81.1013 19.3594C80.5259 19.3815 79.9692 19.1443 79.5727 18.7082C79.1761 18.2721 78.9781 17.679 79.0289 17.0799V16.98H84.4701V16.4141C84.4701 13.974 83.1297 12.4445 80.9983 12.4445C78.8311 12.4445 77.4326 14.0816 77.4326 16.6059C77.4326 19.1224 78.8236 20.691 81.0648 20.691ZM82.8879 15.8256L79.0364 15.8256C79.035 15.2822 79.2415 14.7608 79.6099 14.3773C79.9784 13.9937 80.4782 13.7798 80.9983 13.783C81.5143 13.7715 82.0116 13.9853 82.3703 14.373C82.729 14.7607 82.9166 15.2872 82.8879 15.8256Z" fill="white"/>
<path d="M22.4552 3.27388H23.1341C23.3704 3.30462 23.6082 3.23076 23.79 3.07017C23.9718 2.90958 24.0811 2.67689 24.0914 2.4284C24.0914 1.93925 23.739 1.62328 23.1416 1.62328C22.8997 1.58797 22.6544 1.6563 22.4614 1.81274C22.2685 1.96918 22.1443 2.20045 22.117 2.45401H21.3716C21.3975 1.99348 21.6054 1.56491 21.9456 1.27077C22.2858 0.97662 22.7277 0.843339 23.1657 0.902789C24.1653 0.902789 24.8692 1.48742 24.8692 2.329C24.874 2.90999 24.4896 3.41554 23.9468 3.54211V3.60461C24.5969 3.63473 25.1016 4.20789 25.0761 4.88716C25.0294 5.36102 24.802 5.79529 24.4452 6.09196C24.0884 6.38864 23.6323 6.52273 23.1798 6.46399C22.7262 6.52858 22.267 6.39795 21.9074 6.10203C21.5479 5.80611 21.3188 5.37031 21.2727 4.89455H22.0297C22.0754 5.40193 22.5217 5.72922 23.1798 5.72922C23.8379 5.72922 24.2675 5.3616 24.2675 4.84337C24.2675 4.31776 23.8629 3.99397 23.1557 3.99397H22.4552V3.27388Z" fill="white"/>
<path fill-rule="evenodd" clip-rule="evenodd" d="M27.8033 3.53086C26.8926 3.58989 26.3782 4.00525 26.3782 4.72574C26.3795 5.06736 26.519 5.39248 26.7624 5.62071C27.0057 5.84894 27.3301 5.95898 27.6554 5.92364C28.1194 5.94605 28.5591 5.70597 28.8063 5.29519H28.8661V5.85769H29.5949V3.12288C29.5949 2.27739 29.0531 1.77783 28.0925 1.77783C27.2233 1.77783 26.6034 2.2188 26.5261 2.9063H27.2582C27.343 2.62332 27.6346 2.46142 28.0568 2.46142C28.5744 2.46142 28.8412 2.70013 28.8412 3.12288V3.46837L27.8033 3.53086ZM28.8411 4.04907V4.3837C28.8246 4.63881 28.7097 4.87599 28.5226 5.04093C28.3356 5.20587 28.0925 5.28446 27.849 5.2587C27.4376 5.2587 27.1385 5.04906 27.1385 4.68882C27.1385 4.33596 27.3778 4.14846 27.9054 4.11157L28.8411 4.04907Z" fill="white"/>
<path d="M31.389 2.44277V5.78044H30.6328V1.77783H33.1557V2.44272L31.389 2.44277Z" fill="white"/>
<path fill-rule="evenodd" clip-rule="evenodd" d="M36.0314 5.91334C36.9987 5.91334 37.6144 5.11602 37.6144 3.84432C37.6144 2.57218 36.9986 1.77835 36.0239 1.77838C35.5238 1.76551 35.059 2.04669 34.8207 2.50624H34.7642V1.84476H34.0363V7.17809H34.7924V5.24103H34.8523C35.0867 5.68566 35.5466 5.94793 36.0314 5.91334ZM35.813 2.48792C36.4537 2.48792 36.8367 2.99877 36.8367 3.84425C36.8367 4.6932 36.4537 5.20406 35.8097 5.20407C35.1765 5.20407 34.7784 4.68193 34.7784 3.84773C34.7784 3.00961 35.1765 2.48792 35.813 2.48792Z" fill="white"/>
<path d="M38.6816 7.21404V6.53391C38.7634 6.54477 38.8459 6.5497 38.9284 6.54867C39.262 6.57448 39.5607 6.33373 39.6214 5.99007L39.6779 5.79519L38.291 1.77783H39.1145L40.0751 4.95709H40.135L41.0922 1.77783H41.8941L40.4657 5.94581C40.1383 6.91976 39.776 7.23227 38.9949 7.23227C38.9317 7.23226 38.7522 7.22488 38.6816 7.21404Z" fill="white"/>
<path d="M42.5454 4.73511H43.2983C43.3722 5.088 43.6888 5.272 44.1317 5.272C44.6353 5.272 44.9444 5.04023 44.9444 4.68C44.9444 4.29415 44.6669 4.11012 44.1317 4.11012H43.5584V3.49641H44.1218C44.5788 3.49641 44.8115 3.31282 44.8115 2.97819C44.8115 2.68435 44.5863 2.45996 44.1218 2.45996C43.6988 2.45996 43.3897 2.64747 43.3406 2.96344H42.6119C42.7252 2.20812 43.3967 1.68674 44.1218 1.79113C45.0325 1.79113 45.5535 2.22125 45.5535 2.89747C45.5623 3.28553 45.3101 3.62715 44.9486 3.71691V3.77941C45.3809 3.83766 45.703 4.22471 45.6981 4.68002C45.6981 5.44091 45.0782 5.94434 44.1317 5.94434C43.2949 5.94431 42.6152 5.54371 42.5454 4.73511Z" fill="white"/>
<path d="M46.7998 5.78056V1.77795H47.5493V4.531H47.6092L49.375 1.77796H50.1245V5.78057H49.375V3.01278H49.3185L47.5493 5.78058L46.7998 5.78056Z" fill="white"/>
<path d="M54.2249 2.44272H53.0183V5.78039H52.2613V2.44272H51.0547V1.77783H54.2249V2.44272Z" fill="white"/>
<path fill-rule="evenodd" clip-rule="evenodd" d="M57.0954 5.93514C57.8443 6.01972 58.5438 5.53209 58.7565 4.77716L58.0277 4.77713C57.8465 5.11687 57.4867 5.30855 57.117 5.26238C56.8316 5.26598 56.558 5.1435 56.3637 4.92513C56.1694 4.70675 56.0724 4.41279 56.0966 4.11571V4.07144H58.8022V3.7958C58.8022 2.53891 58.1582 1.77802 57.0921 1.77802C56.5798 1.77346 56.0909 2.00129 55.752 2.4025C55.413 2.8037 55.2574 3.3388 55.3254 3.86917C55.2556 4.39806 55.4118 4.93231 55.7526 5.33016C56.0935 5.728 56.5845 5.94923 57.0954 5.93514ZM58.031 3.48708H56.0965C56.0928 3.21099 56.1961 2.94506 56.383 2.74977C56.5699 2.55448 56.8244 2.44643 57.0887 2.45019C57.3492 2.44414 57.6001 2.55327 57.7796 2.75072C57.959 2.94817 58.0503 3.21557 58.031 3.48708Z" fill="white"/>
<path fill-rule="evenodd" clip-rule="evenodd" d="M61.2653 1.77795H62.9928C63.7424 1.77795 64.1819 2.17466 64.1819 2.79573C64.1843 3.20187 63.9144 3.55441 63.5346 3.64122V3.70371C63.9993 3.73439 64.3596 4.14007 64.354 4.62646C64.354 5.32481 63.8512 5.78054 63.0103 5.78054H61.2653V1.77795ZM62.0148 2.38416V3.42061H62.7643C63.2213 3.42061 63.4399 3.23702 63.4399 2.89848C63.4399 2.58641 63.2496 2.38416 62.8482 2.38416L62.0148 2.38416ZM62.015 5.17421V4.00146L62.8169 4.00147C63.3271 4.00147 63.598 4.18898 63.598 4.58958C63.598 4.96805 63.3587 5.17421 62.9117 5.17421H62.015Z" fill="white"/>
</svg>

<svg width="85" height="24" fill="none" xmlns="http://www.w3.org/2000/svg"><path d="M13 11.2c.1-1.6.9-3 2.2-3.9-.8-1.2-2.1-1.9-3.6-2-1.4-.1-2.9 1-3.6 1-.8 0-2-1-3.2-1C3 5.5 1.6 6.5.8 8-.9 11 .4 15.6 2 18.1c.8 1.2 1.8 2.6 3 2.5 1.3 0 1.7-.8 3.2-.8 1.5 0 2 .8 3.2.8 1.3 0 2.1-1.3 3-2.5.5-.9 1-1.8 1.3-2.9a4.4 4.4 0 01-2.6-4zM10.5 3.2c.7-.9 1.1-2 1-3.2-1 .1-2 .7-2.8 1.5-.7.9-1.1 2-1 3.1 1 0 2.1-.5 2.8-1.4z" fill="#fff"/><path fill-rule="evenodd" clip-rule="evenodd" d="M23.1 17h4l1 3h1.7L26 8.8h-1.8l-3.8 11h1.7l1-3zm3.6-1.4h-3.2l1.6-4.9 1.6 4.9zM35.5 20.7c2 0 3.2-1.6 3.2-4.1 0-2.5-1.2-4.2-3.2-4.2-1 0-2 .6-2.5 1.5v-1.4h-1.5v10.7H33v-4c.5 1 1.4 1.5 2.4 1.5zm-.4-6.8c1.2 0 2 1 2 2.7 0 1.6-.8 2.7-2 2.7s-2-1.1-2-2.7c0-1.7.8-2.7 2-2.7zM44 20.7c2 0 3.3-1.6 3.3-4.1 0-2.5-1.3-4.2-3.3-4.2-1 0-2 .6-2.4 1.5v-1.4H40v10.7h1.6v-4c.5 1 1.4 1.5 2.4 1.5zm-.4-6.8c1.2 0 2 1 2 2.7 0 1.6-.8 2.7-2 2.7s-2-1.1-2-2.7c0-1.7.8-2.7 2-2.7z" fill="#fff"/><path d="M52.7 17c0 1.1 1.1 1.8 2.5 1.8 1.3 0 2.3-.7 2.3-1.7 0-.8-.6-1.3-2-1.7l-1.3-.3c-2-.5-2.9-1.5-2.9-3 0-1.9 1.6-3.2 3.9-3.2 2.2 0 3.7 1.3 3.8 3.2h-1.6c-.1-1.1-1-1.8-2.2-1.8-1.3 0-2.2.7-2.2 1.7 0 .8.6 1.2 2 1.6l1 .3c2.3.5 3.2 1.4 3.2 3 0 2.1-1.6 3.4-4.1 3.4-2.4 0-4-1.3-4-3.3h1.6zM62.3 10.7v1.9h1.4v1.3h-1.4v4.4c0 .7.3 1 1 1h.4v1.3H63c-1.6 0-2.2-.5-2.2-2.1v-4.6h-1.1v-1.3h1v-2h1.7z" fill="#fff"/><path fill-rule="evenodd" clip-rule="evenodd" d="M68.3 12.4c-2.2 0-3.6 1.6-3.6 4.2 0 2.5 1.4 4 3.6 4 2.3 0 3.7-1.5 3.7-4 0-2.6-1.4-4.2-3.7-4.2zm0 1.4c1.3 0 2 1 2 2.8 0 1.7-.7 2.7-2 2.7s-2-1-2-2.7c0-1.8.7-2.8 2-2.8z" fill="#fff"/><path d="M73.2 12.5h1.5V14c.2-.9 1-1.5 1.9-1.5l.5.1v1.6c-.2-.1-.5-.2-.7-.1-.5 0-1 .1-1.2.5-.3.3-.5.8-.4 1.3v4.8h-1.6v-8z" fill="#fff"/><path fill-rule="evenodd" clip-rule="evenodd" d="M81 20.7c1.8 0 3.2-1 3.4-2.5h-1.5c-.3.8-1 1.2-1.8 1.2a2 2 0 01-1.5-.7c-.4-.4-.6-1-.6-1.6V17h5.5v-.6c0-2.4-1.4-4-3.5-4-2.2 0-3.6 1.7-3.6 4.2s1.4 4 3.7 4zm1.9-4.9H79c0-.5.2-1 .6-1.4a2 2 0 012.8 0c.3.4.5.9.5 1.4z" fill="#fff"/><path d="M22.5 3.3h.6c.3 0 .5 0 .7-.2.2-.2.3-.4.3-.7 0-.5-.4-.8-1-.8-.2 0-.4 0-.6.2a1 1 0 00-.4.7h-.7c0-.5.2-1 .5-1.2.4-.3.8-.5 1.3-.4 1 0 1.7.6 1.7 1.4 0 .6-.4 1.1-1 1.2v.1c.7 0 1.2.6 1.2 1.3 0 .5-.3.9-.7 1.2-.3.3-.8.4-1.2.4-.5 0-1-.1-1.3-.4-.4-.3-.6-.7-.6-1.2h.7c0 .5.5.8 1.2.8.6 0 1-.3 1-.9 0-.5-.3-.8-1-.8h-.7v-.7z" fill="#fff"/><path fill-rule="evenodd" clip-rule="evenodd" d="M27.8 3.5c-1 0-1.4.5-1.4 1.2 0 .4.1.7.4 1 .2.1.5.3.9.2.4 0 .9-.2 1.1-.6v.6h.8V3c0-.8-.5-1.3-1.5-1.3-.9 0-1.5.4-1.6 1.1h.8c0-.3.3-.4.8-.4s.7.2.7.6v.4h-1zm1 .5v.4c0 .2 0 .5-.3.6-.2.2-.4.3-.7.3-.4 0-.7-.3-.7-.6 0-.4.3-.6.8-.6h1z" fill="#fff"/><path d="M31.4 2.4v3.4h-.8v-4h2.6v.6h-1.8z" fill="#fff"/><path fill-rule="evenodd" clip-rule="evenodd" d="M36 6c1 0 1.6-.9 1.6-2.2 0-1.2-.6-2-1.6-2-.5 0-1 .2-1.2.7v-.7H34v5.4h.8v-2c.3.5.7.7 1.2.7zm-.2-3.5c.7 0 1 .5 1 1.3 0 .9-.3 1.4-1 1.4-.6 0-1-.5-1-1.4 0-.8.4-1.3 1-1.3z" fill="#fff"/><path d="M38.7 7.2v-.7h.2c.4 0 .7-.2.7-.5v-.2l-1.3-4h.8l1 3.2 1-3.2h.8l-1.4 4.1c-.4 1-.7 1.3-1.5 1.3h-.3zM42.5 4.7h.8c0 .4.4.6.8.6.5 0 .8-.3.8-.6 0-.4-.2-.6-.8-.6h-.5v-.6h.5c.5 0 .7-.2.7-.5s-.2-.5-.7-.5c-.4 0-.7.1-.8.5h-.7c.1-.8.8-1.3 1.5-1.2 1 0 1.5.4 1.5 1.1 0 .4-.3.7-.7.8.5.1.8.5.8 1 0 .7-.6 1.2-1.6 1.2-.8 0-1.5-.4-1.6-1.2zM46.8 5.8v-4h.7v2.7h.1l1.8-2.7h.7v4h-.7V3l-1.9 2.8h-.7zM54.2 2.4H53v3.4h-.7V2.4H51v-.6h3.1v.6z" fill="#fff"/><path fill-rule="evenodd" clip-rule="evenodd" d="M57.1 6c.7 0 1.4-.5 1.7-1.2H58a1 1 0 01-.9.5 1 1 0 01-.7-.4 1 1 0 01-.3-.8h2.7v-.3c0-1.3-.6-2-1.7-2-.5 0-1 .2-1.3.6-.4.4-.5 1-.5 1.5s.1 1 .5 1.4c.3.4.8.6 1.3.6zm1-2.5h-2c0-.3.1-.6.3-.8.2-.1.4-.3.7-.2.2 0 .5 0 .7.3.2.1.3.4.2.7zM61.3 1.8H63c.7 0 1.2.4 1.2 1 0 .4-.3.8-.7.8v.1c.5 0 .9.4.9 1s-.5 1-1.4 1h-1.7v-4zm.7.6v1h.8c.4 0 .6-.2.6-.5s-.2-.5-.6-.5H62zm0 2.8V4h.8c.5 0 .8.2.8.6 0 .4-.2.6-.7.6H62z" fill="#fff"/></svg>
